X: 9342
T: Dancing Bear, The
R: reel
M: 4/4
K: Eminor
|:EFGF EFGF|EFGA G2 E2|EFGF EFGF|EFGA G2 E2|
EFGF EFGF|EFGA B2 e2|B2Bc BAGA|G2E2 E4:|
|:e2 ef gfef|gf e2 e4|e2 ef gfef|gf e2 e4|
e2 ef gfef|gf e2 d2 dc|B2Bc BAGA|G2E2 E4:|

